assets/img/components/button-header.svg

<svg width="575" height="145" viewBox="0 0 575 145" fill="none" xmlns="http://www.w3.org/2000/svg">
<path d="M215.565 0C255.697 4.76619e-05 288.23 32.4594 288.23 72.5C288.23 112.541 255.697 145 215.565 145H0V39.875C4.22802e-05 17.8524 17.4325 0 38.9365 0H215.565Z" fill="#286AD8"/>
<path d="M469.875 145H575C575 64.9188 510.081 0 430 0V105.125C430 127.148 447.853 145 469.875 145Z" fill="#286AD8"/>
<path d="M358.73 145C398.771 145 431.23 112.541 431.23 72.5C431.23 32.4594 398.771 0 358.73 0C318.69 0 286.23 32.4594 286.23 72.5C286.23 112.541 318.69 145 358.73 145Z" fill="#286AD8"/>
<g style="mix-blend-mode:multiply" opacity="0.4">
<path d="M172.096 95C174.416 95 176.507 95.977 177.998 97.541L224.868 144.411C221.822 144.8 218.717 145 215.565 145H65.3623L37.543 117.181C35.9791 115.675 35 113.555 35 111.201V103.481C35.0002 98.9137 38.6695 95.2109 43.1953 95.2109H95.0957C97.2708 95.2109 99.2443 96.0699 100.711 97.4658L112 108.755V103.271C112 98.7028 115.67 95 120.195 95H172.096Z" fill="#1545BB"/>
</g>
<path d="M95.0959 95.2109H43.1949C38.669 95.2109 35 98.9139 35 103.482V111.201C35 115.769 38.669 119.472 43.1949 119.472H95.0959C99.6218 119.472 103.291 115.769 103.291 111.201V103.482C103.291 98.9139 99.6218 95.2109 95.0959 95.2109ZM50.6093 107.341C50.6093 106.002 51.7012 104.915 53.0483 104.915H84.2669C85.6139 104.915 86.7059 106.002 86.7059 107.341C86.7059 108.681 85.6139 109.768 84.2669 109.768H53.0483C51.7012 109.768 50.6093 108.681 50.6093 107.341Z" fill="#5187DF"/>
<path d="M172.096 96C176.063 96 179.291 99.2617 179.291 103.271V110.99C179.291 115 176.063 118.261 172.096 118.261H120.195C116.228 118.261 113 115 113 110.99V103.271C113 99.2617 116.228 96 120.195 96H172.096ZM172.096 95H120.195C115.669 95 112 98.703 112 103.271V110.99C112 115.558 115.669 119.261 120.195 119.261H172.096C176.622 119.261 180.291 115.558 180.291 110.99V103.271C180.291 98.703 176.622 95 172.096 95Z" fill="#5187DF"/>
<path d="M128.303 107.342C128.303 106.002 129.395 104.916 130.742 104.916H161.96C163.307 104.916 164.399 106.002 164.399 107.342C164.399 108.682 163.307 109.768 161.96 109.768H130.742C129.395 109.768 128.303 108.682 128.303 107.342Z" fill="#5187DF"/>
</svg>

<svg xmlns="http://www.w3.org/2000/svg" width="575" height="145" fill="none" viewBox="0 0 575 145"><path fill="#286ad8" d="M215.565 0c40.132 0 72.665 32.46 72.665 72.5S255.697 145 215.565 145H0V39.875C0 17.852 17.433 0 38.937 0zM469.875 145H575C575 64.919 510.081 0 430 0v105.125C430 127.148 447.853 145 469.875 145"/><path fill="#286ad8" d="M358.73 145c40.041 0 72.5-32.459 72.5-72.5S398.771 0 358.73 0s-72.5 32.46-72.5 72.5 32.46 72.5 72.5 72.5"/><path fill="#1545bb" d="M172.096 95a8.13 8.13 0 0 1 5.902 2.541l46.87 46.87a73 73 0 0 1-9.303.589H65.362l-27.819-27.819a8.28 8.28 0 0 1-2.543-5.98v-7.72c0-4.567 3.67-8.27 8.195-8.27h51.9c2.176 0 4.15.859 5.616 2.255L112 108.755v-5.484c0-4.568 3.67-8.271 8.195-8.271z" opacity=".4" style="mix-blend-mode:multiply"/><path fill="#5187df" d="M95.096 95.21H43.195c-4.526 0-8.195 3.704-8.195 8.272v7.719c0 4.568 3.669 8.271 8.195 8.271h51.9c4.527 0 8.196-3.703 8.196-8.271v-7.719c0-4.568-3.67-8.271-8.195-8.271m-44.487 12.131a2.433 2.433 0 0 1 2.44-2.426h31.218a2.433 2.433 0 0 1 2.439 2.426 2.433 2.433 0 0 1-2.44 2.427H53.049a2.433 2.433 0 0 1-2.439-2.427M172.096 96c3.967 0 7.195 3.262 7.195 7.271v7.719c0 4.01-3.228 7.271-7.195 7.271h-51.901c-3.967 0-7.195-3.261-7.195-7.271v-7.719c0-4.01 3.228-7.271 7.195-7.271zm0-1h-51.901c-4.526 0-8.195 3.703-8.195 8.271v7.719c0 4.568 3.669 8.271 8.195 8.271h51.901c4.526 0 8.195-3.703 8.195-8.271v-7.719c0-4.568-3.669-8.271-8.195-8.271"/><path fill="#5187df" d="M128.303 107.342a2.43 2.43 0 0 1 2.439-2.426h31.218a2.43 2.43 0 0 1 2.439 2.426 2.43 2.43 0 0 1-2.439 2.426h-31.218a2.43 2.43 0 0 1-2.439-2.426"/></svg>
